inst/assets/svg/wi-direction-down.svg

<?xml version="1.0" encoding="UTF-8"?>
<svg xmlns="http://www.w3.org/2000/svg" xmlns:xlink="http://www.w3.org/1999/xlink" width="30pt" height="30pt" viewBox="0 0 30 30" version="1.1">
<g id="surface191">
<path style=" stroke:none;fill-rule:nonzero;fill:rgb(0%,0%,0%);fill-opacity:1;" d="M 11.769531 16.46875 C 11.769531 16.691406 11.851563 16.871094 12.019531 17.019531 L 14.421875 19.46875 C 14.578125 19.628906 14.769531 19.699219 15 19.699219 C 15.238281 19.699219 15.429688 19.621094 15.589844 19.46875 L 17.988281 17.019531 C 18.148438 16.878906 18.230469 16.691406 18.230469 16.46875 C 18.230469 16.25 18.148438 16.058594 18 15.898438 C 17.851563 15.738281 17.660156 15.671875 17.441406 15.671875 C 17.21875 15.671875 17.019531 15.75 16.871094 15.898438 L 15.808594 16.949219 L 15.808594 10.359375 C 15.808594 10.140625 15.730469 9.949219 15.570313 9.800781 C 15.421875 9.660156 15.230469 9.578125 15 9.578125 C 14.769531 9.578125 14.578125 9.648438 14.421875 9.800781 C 14.261719 9.949219 14.179688 10.140625 14.179688 10.359375 L 14.179688 16.949219 L 13.121094 15.898438 C 12.960938 15.738281 12.78125 15.671875 12.570313 15.671875 C 12.351563 15.671875 12.148438 15.75 12 15.898438 C 11.851563 16.050781 11.769531 16.25 11.769531 16.46875 Z M 11.769531 16.46875 "/>
</g>
</svg>

<?xml version="1.0" encoding="utf-8"?>
<!-- Generator: Adobe Illustrator 22.0.1, SVG Export Plug-In . SVG Version: 6.00 Build 0)  -->
<svg version="1.1" id="Layer_1" xmlns="http://www.w3.org/2000/svg" xmlns:xlink="http://www.w3.org/1999/xlink" x="0px" y="0px"
	 viewBox="0 0 30 30" style="enable-background:new 0 0 30 30;" xml:space="preserve">
<path d="M11.77,16.47c0,0.22,0.08,0.4,0.25,0.55l2.4,2.45c0.16,0.16,0.35,0.23,0.58,0.23c0.24,0,0.43-0.08,0.59-0.23l2.4-2.45
	c0.16-0.14,0.24-0.33,0.24-0.55c0-0.22-0.08-0.41-0.23-0.57s-0.34-0.23-0.56-0.23s-0.42,0.08-0.57,0.23l-1.06,1.05v-6.59
	c0-0.22-0.08-0.41-0.24-0.56C15.42,9.66,15.23,9.58,15,9.58s-0.42,0.07-0.58,0.22c-0.16,0.15-0.24,0.34-0.24,0.56v6.59l-1.06-1.05
	c-0.16-0.16-0.34-0.23-0.55-0.23c-0.22,0-0.42,0.08-0.57,0.23S11.77,16.25,11.77,16.47z"/>
</svg>
